Papirus/22x22/panel/quota.svg

<svg xmlns="http://www.w3.org/2000/svg" width="22" height="22" version="1.1">
 <defs>
  <style id="current-color-scheme" type="text/css">
   .ColorScheme-Text { color:#dfdfdf; } .ColorScheme-Highlight { color:#4285f4; } .ColorScheme-NeutralText { color:#ff9800; } .ColorScheme-PositiveText { color:#4caf50; } .ColorScheme-NegativeText { color:#f44336; }
  </style>
 </defs>
 <path style="fill:currentColor" class="ColorScheme-Text" d="m5.166 3c-1.1667 0-1.166 1.1426-1.166 1.1426v13.714s-0.0007 1.143 1.166 1.143h11.668s1.166 0 1.166-1.143v-13.714c0-0.0004 0.001-1.143-1.166-1.143h-11.668zm5.834 2c2.761 0 5 2.2386 5 5 0 2.761-2.239 5-5 5h-5v-5c0-2.7614 2.2386-5 5-5zm0 2c-1.6569 0-3 1.3431-3 3 0 1.657 1.3431 3 3 3 1.657 0 3-1.343 3-3 0-1.6569-1.343-3-3-3z"/>
</svg>

<svg xmlns="http://www.w3.org/2000/svg" width="22" height="22" version="1.1">
 <defs>
  <style id="current-color-scheme" type="text/css">
   .ColorScheme-Text { color:#dfdfdf; } .ColorScheme-Highlight { color:#4285f4; } .ColorScheme-NeutralText { color:#ff9800; } .ColorScheme-PositiveText { color:#4caf50; } .ColorScheme-NegativeText { color:#f44336; }
  </style>
 </defs>
 <path style="fill:currentColor" class="ColorScheme-Text" d="M 5 3 C 4 3 4 4 4 4 L 4 18 C 4 18 4 19 5 19 L 17 19 C 17 19 18 19 18 18 L 18 4 C 18 4 18 3 17 3 L 5 3 z M 11 5 A 5 5 0 0 1 16 10 A 5 5 0 0 1 11 15 L 6 15 L 6 10 A 5 5 0 0 1 11 5 z M 11 7 A 3 3 0 0 0 8 10 A 3 3 0 0 0 11 13 A 3 3 0 0 0 14 10 A 3 3 0 0 0 11 7 z"/>
</svg>
